X:160
T:French Dance (M.S. key)
O:No160  Page 78 William Clarke of Feltwell
M:6/8
L:1/8
N:transcribed by D. Dolby/M. Humphreys May2010
K:C
:!segno!{A}G|c2 c {d}cBc|d2dg2f|e2e efe|dddd2G|c2 c {d}cBc|d2dg2f|e2 e {e}dc>d|cccc2:|
|:c|a3g^fg|e3efg|f3def|eg/f/e/d/c2c|a3g^fg|e3efg|f3ded|{ed}c3c2!segno!:|
|:e|efee2a|c'3a2c'|bc'bb2a|{a}g^fge2e|d'2d'b2b|{c'}c'bc'a2c'|b2b e^f^g|a2c'a2!segno!||


